X: 1944
T: Uncle Dave's Jig
B: australian traditional tunes wiki
M:6/8
L:1/8
R: Jig
Q: 3/8=100
K:D
V:1 
A|:"D"fgf "A7"efe|"D"d2A ABA|"G"gag "D"fgf|"A7"e2A ABA|
"D"fgf "A7"efe|"D"d2A ABA|"G"B2d "A7"ABc|"D"d2A ABA:|
|:"A7"c2c cBc|efe cBA|"D"d2d ABA|aba fed|
"G"gfg "D"fef|"A7"efe cBA|"D"a2f "A7"gfe|1"D"d2A ABA:|2"D"d3d3||
% abcbook-tune_id 6342d5bef167b1ef3c640571


% abcbook-boost 0
% abcbook-tablature 
% abcbook-transpose 
% abcbook-lastupdated 1665324489382
% abcbook-soundfonts 
% abcbook-repeats 1
% NFF Book 2010

